svg/color/elyx.svg

<?xml version="1.0" encoding="UTF-8" ?>
<!DOCTYPE svg PUBLIC "-//W3C//DTD SVG 1.1//EN" "http://www.w3.org/Graphics/SVG/1.1/DTD/svg11.dtd">
<svg width="250pt" height="250pt" viewBox="0 0 250 250" version="1.1" xmlns="http://www.w3.org/2000/svg">
<g id="#fbfcfdff">
<path fill="#fbfcfd" opacity="1.00" d=" M 0.00 0.00 L 250.00 0.00 L 250.00 250.00 L 0.00 250.00 L 0.00 0.00 M 68.40 8.52 C 36.38 10.62 8.57 39.75 9.04 71.99 C 9.12 107.24 8.66 142.50 9.28 177.75 C 8.47 182.55 8.74 186.26 10.10 188.88 L 10.31 189.70 C 10.06 194.21 10.07 200.29 13.94 203.23 L 14.15 204.12 C 22.17 225.68 44.38 240.88 66.98 243.96 C 125.37 243.59 184.29 244.89 242.35 243.32 C 243.20 217.88 224.66 191.74 199.79 184.33 L 199.03 184.16 C 194.87 180.63 188.14 180.29 182.78 180.20 C 182.34 180.15 181.47 180.06 181.03 180.01 C 180.53 179.75 179.51 179.23 179.00 178.97 C 145.48 178.74 111.92 179.55 78.43 178.59 C 69.92 175.73 69.96 165.42 71.03 158.05 C 126.26 157.82 181.50 158.25 236.73 157.85 C 237.03 157.58 237.64 157.06 237.94 156.80 C 238.19 123.55 208.31 95.26 175.89 93.23 C 140.97 92.64 106.03 93.24 71.10 92.95 C 70.95 88.89 70.81 84.82 70.66 80.75 L 70.82 79.96 C 74.93 77.40 76.75 70.97 83.00 73.04 C 89.18 72.10 98.47 74.56 102.99 72.00 L 103.99 72.00 C 104.49 72.26 105.49 72.77 105.99 73.03 C 151.00 72.95 196.00 73.06 241.01 72.97 L 240.98 72.00 L 241.97 71.97 C 242.44 56.62 236.36 41.37 225.87 30.23 C 226.10 27.63 223.37 24.86 220.76 25.15 C 208.24 13.12 190.22 7.34 173.01 7.99 C 138.15 8.35 103.23 7.30 68.40 8.52 Z" />
</g>
<g id="#1199b8ff">
<path fill="#1199b8" opacity="1.00" d=" M 68.40 8.52 C 103.23 7.30 138.15 8.35 173.01 7.99 C 190.22 7.34 208.24 13.12 220.76 25.15 C 222.40 26.90 224.12 28.58 225.87 30.23 C 236.36 41.37 242.44 56.62 241.97 71.97 L 240.98 72.00 C 195.32 72.00 149.65 71.99 103.99 72.00 L 102.99 72.00 C 92.83 73.71 74.85 66.42 70.82 79.96 L 70.66 80.75 C 69.12 86.93 70.24 93.06 71.87 99.04 C 72.76 114.38 70.50 129.67 71.94 145.00 C 72.05 155.27 66.36 167.21 72.55 176.47 C 75.28 178.50 78.29 180.79 82.02 179.92 C 115.02 180.15 148.03 179.90 181.03 180.01 C 181.47 180.06 182.34 180.15 182.78 180.20 C 188.24 181.34 193.53 183.22 199.03 184.16 L 199.79 184.33 C 207.68 189.68 218.57 192.95 223.23 201.91 C 218.63 200.52 213.84 199.74 209.02 199.97 C 173.68 200.09 138.34 199.86 103.00 200.09 C 76.42 203.08 49.66 199.92 22.98 200.98 C 19.14 199.44 16.46 201.78 14.15 204.12 L 13.94 203.23 C 12.86 198.68 11.75 194.14 10.31 189.70 L 10.10 188.88 C 9.87 185.16 9.60 181.45 9.28 177.75 C 8.66 142.50 9.12 107.24 9.04 71.99 C 8.57 39.75 36.38 10.62 68.40 8.52 Z" />
</g>
<g id="#3277acff">
<path fill="#3277ac" opacity="1.00" d=" M 220.76 25.15 C 223.37 24.86 226.10 27.63 225.87 30.23 C 224.12 28.58 222.40 26.90 220.76 25.15 Z" />
<path fill="#3277ac" opacity="1.00" d=" M 70.82 79.96 C 74.85 66.42 92.83 73.71 102.99 72.00 C 98.47 74.56 89.18 72.10 83.00 73.04 C 76.75 70.97 74.93 77.40 70.82 79.96 Z" />
<path fill="#3277ac" opacity="1.00" d=" M 103.99 72.00 C 149.65 71.99 195.32 72.00 240.98 72.00 L 241.01 72.97 C 196.00 73.06 151.00 72.95 105.99 73.03 C 105.49 72.77 104.49 72.26 103.99 72.00 Z" />
<path fill="#3277ac" opacity="1.00" d=" M 71.87 99.04 C 70.24 93.06 69.12 86.93 70.66 80.75 C 70.81 84.82 70.95 88.89 71.10 92.95 C 106.03 93.24 140.97 92.64 175.89 93.23 C 208.31 95.26 238.19 123.55 237.94 156.80 C 237.64 157.06 237.03 157.58 236.73 157.85 C 181.50 158.25 126.26 157.82 71.03 158.05 C 69.96 165.42 69.92 175.73 78.43 178.59 C 111.92 179.55 145.48 178.74 179.00 178.97 C 179.51 179.23 180.53 179.75 181.03 180.01 C 148.03 179.90 115.02 180.15 82.02 179.92 C 78.29 180.79 75.28 178.50 72.55 176.47 C 66.36 167.21 72.05 155.27 71.94 145.00 C 70.50 129.67 72.76 114.38 71.87 99.04 Z" />
<path fill="#3277ac" opacity="1.00" d=" M 9.28 177.75 C 9.60 181.45 9.87 185.16 10.10 188.88 C 8.74 186.26 8.47 182.55 9.28 177.75 Z" />
<path fill="#3277ac" opacity="1.00" d=" M 182.78 180.20 C 188.14 180.29 194.87 180.63 199.03 184.16 C 193.53 183.22 188.24 181.34 182.78 180.20 Z" />
<path fill="#3277ac" opacity="1.00" d=" M 199.79 184.33 C 224.66 191.74 243.20 217.88 242.35 243.32 C 184.29 244.89 125.37 243.59 66.98 243.96 C 44.38 240.88 22.17 225.68 14.15 204.12 C 16.46 201.78 19.14 199.44 22.98 200.98 C 49.66 199.92 76.42 203.08 103.00 200.09 C 138.34 199.86 173.68 200.09 209.02 199.97 C 213.84 199.74 218.63 200.52 223.23 201.91 C 218.57 192.95 207.68 189.68 199.79 184.33 Z" />
<path fill="#3277ac" opacity="1.00" d=" M 10.31 189.70 C 11.75 194.14 12.86 198.68 13.94 203.23 C 10.07 200.29 10.06 194.21 10.31 189.70 Z" />
</g>
</svg>

<?xml version="1.0" encoding="utf-8"?>
<!-- Generator: Adobe Illustrator 26.0.3, SVG Export Plug-In . SVG Version: 6.00 Build 0)  -->
<svg version="1.1" id="Layer_1" xmlns="http://www.w3.org/2000/svg" xmlns:xlink="http://www.w3.org/1999/xlink" x="0px" y="0px"
	 viewBox="0 0 250 250" style="enable-background:new 0 0 250 250;" xml:space="preserve">
<style type="text/css">
	.st0{fill:#1199B8;}
	.st1{fill:#3277AC;}
</style>
<g id="_x23_1199b8ff">
	<path class="st0" d="M68.4,8.5C103.2,7.3,138.1,8.4,173,8c17.2-0.6,35.2,5.1,47.8,17.2c1.6,1.8,3.4,3.4,5.1,5.1
		C236.4,41.4,242.4,56.6,242,72l-1,0c-45.7,0-91.3,0-137,0h-1c-10.2,1.7-28.1-5.6-32.2,8l-0.2,0.8c-1.5,6.2-0.4,12.3,1.2,18.3
		c0.9,15.3-1.4,30.6,0.1,46c0.1,10.3-5.6,22.2,0.6,31.5c2.7,2,5.7,4.3,9.5,3.4c33,0.2,66,0,99,0.1c0.4,0.1,1.3,0.1,1.8,0.2
		c5.5,1.1,10.8,3,16.2,4l0.8,0.2c7.9,5.3,18.8,8.6,23.4,17.6c-4.6-1.4-9.4-2.2-14.2-1.9c-35.3,0.1-70.7-0.1-106,0.1
		c-26.6,3-53.3-0.2-80,0.9c-3.8-1.5-6.5,0.8-8.8,3.1l-0.2-0.9c-1.1-4.6-2.2-9.1-3.6-13.5l-0.2-0.8c-0.2-3.7-0.5-7.4-0.8-11.1
		C8.7,142.5,9.1,107.2,9,72C8.6,39.8,36.4,10.6,68.4,8.5z"/>
</g>
<g id="_x23_3277acff">
	<path class="st1" d="M220.8,25.1c2.6-0.3,5.3,2.5,5.1,5.1C224.1,28.6,222.4,26.9,220.8,25.1z"/>
	<path class="st1" d="M70.8,80c4-13.5,22-6.2,32.2-8c-4.5,2.6-13.8,0.1-20,1C76.8,71,74.9,77.4,70.8,80z"/>
	<path class="st1" d="M104,72c45.7,0,91.3,0,137,0l0,1c-45,0.1-90,0-135,0.1C105.5,72.8,104.5,72.3,104,72z"/>
	<path class="st1" d="M71.9,99c-1.6-6-2.8-12.1-1.2-18.3c0.1,4.1,0.3,8.1,0.4,12.2c34.9,0.3,69.9-0.3,104.8,0.3
		c32.4,2,62.3,30.3,62.1,63.6c-0.3,0.3-0.9,0.8-1.2,1.1c-55.2,0.4-110.5,0-165.7,0.2c-1.1,7.4-1.1,17.7,7.4,20.5
		c33.5,1,67,0.2,100.6,0.4c0.5,0.3,1.5,0.8,2,1c-33-0.1-66,0.1-99-0.1c-3.7,0.9-6.7-1.4-9.5-3.4c-6.2-9.3-0.5-21.2-0.6-31.5
		C70.5,129.7,72.8,114.4,71.9,99z"/>
	<path class="st1" d="M9.3,177.8c0.3,3.7,0.6,7.4,0.8,11.1C8.7,186.3,8.5,182.6,9.3,177.8z"/>
	<path class="st1" d="M182.8,180.2c5.4,0.1,12.1,0.4,16.2,4C193.5,183.2,188.2,181.3,182.8,180.2z"/>
	<path class="st1" d="M199.8,184.3c24.9,7.4,43.4,33.6,42.6,59c-58.1,1.6-117,0.3-175.4,0.6c-22.6-3.1-44.8-18.3-52.8-39.8
		c2.3-2.3,5-4.7,8.8-3.1c26.7-1.1,53.4,2.1,80-0.9c35.3-0.2,70.7,0,106-0.1c4.8-0.2,9.6,0.6,14.2,1.9
		C218.6,192.9,207.7,189.7,199.8,184.3z"/>
	<path class="st1" d="M10.3,189.7c1.4,4.4,2.5,9,3.6,13.5C10.1,200.3,10.1,194.2,10.3,189.7z"/>
</g>
</svg>
